icon-svg/shed-open.svg

<svg xmlns="http://www.w3.org/2000/svg" fill="#44739e" viewBox="0 0 24 24"><path d="M5.216 17.282h-.049l-.036-3.869h.014v-.257h-.016l-.045-4.623-.366.023v.3H4.63v-.33l-.366.023v.317h-.089v-.343l-.366.023v.33H3.72v-.355l-.365.023v.343h-.088v-.368l-.367.037v.356h-.088v-.381l-.366.023v.369h-.089v-.394l-.364.023v.381l-.174.006v.258L2 9.2l.039 3.969h-.152v.257h.157l.038 3.809h-.124l-.007.259h.133v.364h.361v-.363h.093v.357H2.9v-.356h.093v.35h.361v-.349h.092v.342h.361v-.343H3.9v.337h.362v-.335h.093v.328h.361v-.328h.092v.321h.362v-.32h.039ZM2 9.159h-.137v-.183h.139l.364-.011h.089l.366-.012h.088l.366-.009h.088l.366-.01h.089l.365-.01h.089l.365-.01h.088l.328-.009v.182l-.327.009h-.089l-.365.01h-.088l-.366.011h-.089l-.367.01h-.087l-.366.01H2.82l-.365.01h-.089Zm2.311 4H4.22l-.038-4.026h.088Zm-.455 0h-.09l-.039-4.013h.089zm-.454 0h-.091l-.038-4h.088zm-.455 0h-.09l-.038-3.99h.089zm-.454 0H2.4l-.035-3.973h.089Zm2.272-.008h-.091L4.636 9.12h.088zm-2.723.23v-.183h3.07v.181H2.4Zm2.763 3.889h-.092l-.037-3.859h.091Zm-.453-.007h-.093l-.037-3.851h.091Zm-.452-.002h-.1l-.036-3.843h.09zm-.454-.007h-.093l-.037-3.833h.092Zm-.454-.007h-.094L2.86 13.42h.091Zm-.456-.008h-.095L2.4 13.422h.1Zm2.274.258h-.092l-.361-.006h-.096l-.361-.01h-.548l-.361-.006H2.9l-.361-.006h-.096l-.361-.007h-.1l.006-.182h.092l.362.006h.093l.361.006h.093l.362.006h.092l.362.008h.549l.362.005h.092l.362.006v.184zm6.208.376h.039v.345l.365.031v-.348l.094.009v.356l.368.033v-.359l.1.008v.366l.375.034v-.369l.1.008v.378l.381.034v-.38l.1.007v.389l.387.035v-.392l.1.009v.4l.393.036v-.4l.1.007v.413l.4.036v-.416l.147.012-.011-.294-.137-.01-.019-4.32h.174l-.006-.294h-.169l-.018-4.5h.191v-.292h-.192v-.432h-.4v.443h-.1v-.415h-.4v.425h-.095v-.4h-.391v.408H12.8v-.362h-.39V8.5h-.093v-.355h-.378v.372h-.091v-.342h-.373v.354h-.089V8.2h-.368l.019 4.959h-.019v.277h.015l.015 4.16H11Zm2.854-9.163h-.1l-.4.01h-.1l-.39.01h-.094l-.386.009h-.093l-.378.009h-.091l-.373.008h-.089l-.33.008v-.2l.33-.009h.088l.373-.009h.091l.379-.011h.093l.385-.01h.094l.391-.01h.1l.4-.011h.1l.4-.012h.153V8.7h-.152Zm-2.022.09h.091l.017 4.387h-.093zm.469-.011h.094l.017 4.41h-.094zm.479-.011h.094l.018 4.431h-.1zm.485-.011h.1l.018 4.454h-.1zm.492-.012h.1l.019 4.477h-.1zm-2.386.057h.088l.018 4.365h-.092zm2.5 4.666h-.1l-.4-.01h-.1l-.388-.011h-.1l-.383-.01h-.1l-.378-.01h-.093l-.37-.011h-.092l-.347-.008v-.2l.349.009h.092l.37.009h.093l.378.01h.094l.384.008h.1l.389.01h.1l.4.01h.1l.4.009v.209zm-2.489-.029h.092l.016 4.183-.094-.007zm.462.013h.093l.018 4.207-.1-.008zm.471.013h.1l.017 4.229-.1-.008zm.478.015h.1l.017 4.252-.1-.007zm.484.013h.1l.019 4.277-.1-.009zm.494.014h.1l.02 4.3-.1-.007zm-2.739 4.32v-.2l.364.03.094.007.368.029.1.007.375.029.1.009.381.029.1.008.388.031.1.007.393.032.1.007.4.031.1.007.007.209-.107-.008-.4-.033-.1-.008-.393-.033-.1-.007-.388-.032-.1-.008-.381-.032-.1-.008-.375-.03-.1-.009-.368-.03-.094-.007zM8.126 6.242l5 1.579 8.728.812-4.779-1.4zm6.342 1.95 7.3.616.049-.1-7.35-.638zm-6.513-1.95L13 7.845l.108.03v.118l-.553.025L7.99 6.547l.045-.14Zm-.314.058L3.273 8.439l-.065.027.667-.027L7.641 6.6l-.059-.143Zm.2.864h-.028L7.6 6.71l-1.3.645 3.263-.19-1.574-.513Zm-1.7.277-.953.476 5.705-.35-1.078-.34Zm-1.158.581-.839.421 8.156-.425-1.237-.381Zm16.423.909h-.179l-1.081-.094-.2-.02-1.26-.107-1.233-.068-1.258-.107-.362-.035-1.3-.11v3.442l1.3.019.336-.019 1.295.019 1.263.021 1.283.027h1.255v.3l-6.849-.118v.515l6.855.084v.185l-6.86-.058v.463l6.861.025v.2h-6.855l.006.461 6.87-.029v.126l-6.881.137.014.462 6.873-.168v.171l-6.889.2.017.462 6.878-.228v.176l-6.9.259.021.463 6.883-.291v.228l-6.89.294.024.463 6.872-.326v.158l-6.916.44.032.463 6.89-.472v.162l-6.907.5.036.462 6.978-.541.081-.021zm-5.749 2.73-.95-.014V8.59l.95.081zm.69-.014.018-2.908.91.078.012 2.844zm2.553.041-.038-2.773.907.076.06 2.716zm1.475.021-.05-2.666.849.073.053 2.593zM7.656 6.486 7.831 7l.124-.567-.148-.594Z"/></svg>

<?xml version="1.0" encoding="UTF-8"?>
<svg width="24px" fill="#44739e" height="24px" viewBox="0 0 24 24" version="1.1" xmlns="http://www.w3.org/2000/svg" xmlns:xlink="http://www.w3.org/1999/xlink">
            <path d="M 5.216,17.282 H 5.167 L 5.131,13.413 H 5.145 V 13.156 H 5.129 L 5.084,8.533 4.718,8.556 v 0.3 H 4.63 V 8.526 L 4.264,8.549 V 8.866 H 4.175 V 8.523 L 3.809,8.546 v 0.33 H 3.72 V 8.521 L 3.355,8.544 V 8.887 H 3.267 V 8.519 L 2.9,8.556 V 8.912 H 2.812 V 8.531 L 2.446,8.554 V 8.923 H 2.357 V 8.529 L 1.993,8.552 V 8.933 L 1.819,8.939 V 9.197 L 2,9.2 2.039,13.169 H 1.887 v 0.257 h 0.157 l 0.038,3.809 H 1.958 l -0.007,0.259 h 0.133 v 0.364 h 0.361 v -0.363 h 0.093 v 0.357 H 2.9 v -0.356 h 0.093 v 0.35 h 0.361 v -0.349 h 0.092 v 0.342 H 3.807 V 17.496 H 3.9 v 0.337 h 0.362 v -0.335 h 0.093 v 0.328 h 0.361 v -0.328 h 0.092 v 0.321 H 5.17 v -0.32 H 5.209 Z M 2,9.159 H 1.863 V 8.976 H 2.002 L 2.366,8.965 H 2.455 L 2.821,8.953 H 2.909 L 3.275,8.944 H 3.363 L 3.729,8.934 H 3.818 L 4.183,8.924 H 4.272 L 4.637,8.914 H 4.725 L 5.053,8.905 V 9.087 L 4.726,9.096 H 4.637 L 4.272,9.106 H 4.184 L 3.818,9.117 H 3.729 L 3.362,9.127 H 3.275 L 2.909,9.137 H 2.82 L 2.455,9.147 H 2.366 Z m 2.311,4 H 4.22 L 4.182,9.133 H 4.27 Z m -0.455,0 H 3.766 L 3.727,9.146 h 0.089 z m -0.454,0 H 3.311 l -0.038,-4 h 0.088 z m -0.455,0 H 2.857 L 2.819,9.169 h 0.089 z m -0.454,0 H 2.4 L 2.365,9.186 H 2.454 Z M 4.765,13.151 H 4.674 L 4.636,9.12 h 0.088 z m -2.723,0.23 v -0.183 h 0.362 1.907 0.363 0.438 v 0.181 H 4.676 4.313 4.222 3.858 2.4 Z M 4.805,17.27 H 4.713 L 4.676,13.411 H 4.767 Z M 4.352,17.263 H 4.259 L 4.222,13.412 H 4.313 Z M 3.9,17.261 H 3.8 L 3.764,13.418 h 0.09 z M 3.446,17.254 H 3.353 L 3.316,13.421 H 3.408 Z M 2.992,17.247 H 2.898 L 2.86,13.42 H 2.951 Z M 2.536,17.239 H 2.441 L 2.4,13.422 H 2.5 Z M 4.81,17.497 H 4.718 L 4.357,17.491 H 4.261 L 3.9,17.481 H 3.807 3.445 3.352 L 2.991,17.475 H 2.9 L 2.539,17.469 H 2.443 L 2.082,17.462 h -0.1 L 1.988,17.28 H 2.08 l 0.362,0.006 h 0.093 l 0.361,0.006 h 0.093 l 0.362,0.006 h 0.092 l 0.362,0.008 H 3.9 4.262 4.354 l 0.362,0.005 h 0.092 l 0.362,0.006 v 0.184 z m 6.208,0.376 h 0.039 v 0.345 l 0.365,0.031 v -0.348 l 0.094,0.009 v 0.356 l 0.368,0.033 V 17.94 l 0.1,0.008 v 0.366 l 0.375,0.034 v -0.369 l 0.1,0.008 v 0.378 l 0.381,0.034 v -0.38 l 0.1,0.007 v 0.389 l 0.387,0.035 v -0.392 l 0.1,0.009 v 0.4 l 0.393,0.036 v -0.4 l 0.1,0.007 v 0.413 l 0.4,0.036 v -0.416 l 0.147,0.012 -0.011,-0.294 -0.137,-0.01 -0.019,-4.32 h 0.174 l -0.006,-0.294 h -0.169 l -0.018,-4.5 h 0.191 V 8.445 H 14.28 V 8.013 h -0.4 v 0.443 h -0.1 V 8.041 h -0.4 v 0.425 h -0.095 v -0.4 H 12.894 V 8.474 H 12.8 V 8.112 H 12.41 V 8.5 H 12.317 V 8.145 H 11.939 V 8.517 H 11.848 V 8.175 H 11.475 V 8.529 H 11.386 V 8.2 h -0.368 l 0.019,4.959 h -0.019 v 0.277 h 0.015 l 0.015,4.16 H 11 Z M 13.872,8.71 h -0.1 l -0.4,0.01 h -0.1 l -0.39,0.01 H 12.788 L 12.402,8.739 H 12.309 L 11.931,8.748 H 11.84 l -0.373,0.008 h -0.089 l -0.33,0.008 v -0.2 l 0.33,-0.009 h 0.088 l 0.373,-0.009 h 0.091 l 0.379,-0.011 h 0.093 l 0.385,-0.01 h 0.094 l 0.391,-0.01 h 0.1 l 0.4,-0.011 h 0.1 l 0.4,-0.012 h 0.153 V 8.7 H 14.273 Z M 11.85,8.8 h 0.091 l 0.017,4.387 h -0.093 z m 0.469,-0.011 h 0.094 l 0.017,4.41 h -0.094 z m 0.479,-0.011 h 0.094 l 0.018,4.431 h -0.1 z m 0.485,-0.011 h 0.1 l 0.018,4.454 h -0.1 z m 0.492,-0.012 h 0.1 l 0.019,4.477 h -0.1 z m -2.386,0.057 h 0.088 l 0.018,4.365 h -0.092 z m 2.5,4.666 h -0.1 l -0.4,-0.01 h -0.1 l -0.388,-0.011 h -0.1 l -0.383,-0.01 h -0.1 l -0.378,-0.01 h -0.093 l -0.37,-0.011 h -0.092 l -0.347,-0.008 v -0.2 l 0.349,0.009 h 0.092 l 0.37,0.009 h 0.093 l 0.378,0.01 h 0.094 l 0.384,0.008 h 0.1 l 0.389,0.01 h 0.1 l 0.4,0.01 h 0.1 l 0.4,0.009 v 0.209 z M 11.4,13.449 h 0.092 l 0.016,4.183 -0.094,-0.007 z m 0.462,0.013 h 0.093 l 0.018,4.207 -0.1,-0.008 z m 0.471,0.013 h 0.1 l 0.017,4.229 -0.1,-0.008 z m 0.478,0.015 h 0.1 l 0.017,4.252 -0.1,-0.007 z m 0.484,0.013 h 0.1 l 0.019,4.277 -0.1,-0.009 z m 0.494,0.014 h 0.1 l 0.02,4.3 -0.1,-0.007 z m -2.739,4.32 v -0.2 l 0.364,0.03 0.094,0.007 0.368,0.029 0.1,0.007 0.375,0.029 0.1,0.009 0.381,0.029 0.1,0.008 0.388,0.031 0.1,0.007 0.393,0.032 0.1,0.007 0.4,0.031 0.1,0.007 0.007,0.209 -0.107,-0.008 -0.4,-0.033 -0.1,-0.008 -0.393,-0.033 -0.1,-0.007 -0.388,-0.032 -0.1,-0.008 -0.381,-0.032 -0.1,-0.008 -0.375,-0.03 -0.1,-0.009 -0.368,-0.03 -0.094,-0.007 z M 8.126,6.242 l 5,1.579 8.728,0.812 -4.779,-1.4 z m 6.342,1.95 7.3,0.616 0.049,-0.1 -7.35,-0.638 z M 7.955,6.242 13,7.845 13.108,7.875 V 7.993 L 12.555,8.018 7.99,6.547 8.035,6.407 Z M 7.641,6.3 3.273,8.439 3.208,8.466 3.875,8.439 7.641,6.6 7.582,6.457 Z m 0.2,0.864 H 7.813 L 7.6,6.71 6.3,7.355 9.563,7.165 7.989,6.652 Z M 6.141,7.441 5.188,7.917 10.893,7.567 9.815,7.227 Z M 4.983,8.022 4.144,8.443 12.3,8.018 11.063,7.637 Z M 21.406,8.931 H 21.227 L 20.146,8.837 19.946,8.817 18.686,8.71 17.453,8.642 16.195,8.535 15.833,8.5 14.533,8.39 v 3.442 l 1.3,0.019 0.336,-0.019 1.295,0.019 1.263,0.021 1.283,0.027 h 1.255 v 0.3 l -6.849,-0.118 v 0.515 l 6.855,0.084 v 0.185 l -6.86,-0.058 v 0.463 l 6.861,0.025 v 0.2 h -6.855 l 0.006,0.461 6.87,-0.029 v 0.126 l -6.881,0.137 0.014,0.462 6.873,-0.168 v 0.171 l -6.889,0.2 0.017,0.462 6.878,-0.228 v 0.176 l -6.9,0.259 0.021,0.463 6.883,-0.291 v 0.228 l -6.89,0.294 0.024,0.463 6.872,-0.326 v 0.158 l -6.916,0.44 0.032,0.463 6.89,-0.472 v 0.162 l -6.907,0.5 0.036,0.462 6.978,-0.541 0.081,-0.021 z m -5.749,2.73 -0.95,-0.014 V 8.59 l 0.95,0.081 z m 0.69,-0.014 0.018,-2.908 0.91,0.078 0.012,2.844 z m 2.553,0.041 -0.038,-2.773 0.907,0.076 0.06,2.716 z m 1.475,0.021 -0.05,-2.666 0.849,0.073 0.053,2.593 z M 7.656,6.486 7.831,7 7.955,6.433 7.807,5.839 Z"/>

</svg>
